X:1
T:Title
%%score { ( 1 2 3 ) | ( 4 5 6 ) }
L:1/8
Q:1/4=100
M:4/4
K:Ab
V:1 treble nm="Grand Piano"
V:2 treble 
V:3 treble 
V:4 bass 
V:5 bass 
V:6 bass 
V:1
 [Ec]4 z4 | [Ec]4 B4 | [Gd]4 z4 | c2- [Ec]4 z2 | [Ec]4 z4 | [_Ge]4[K:bass][K:treble] [Fd]4 | %6
w: D.~O.~Teasley||||||
 c4 z4 | A6 z2 | [GB]4 z4 | [EA]4 z4 | z2 z d cB[A=d][Ad] |[M:9/8] e6- e/ z/ z z |[M:4/4] c4 z4 | %13
w: |||||||
 [_Ge]4[K:bass][K:treble] [Fd]4 | c4 z4 | A6 z2 |] %16
w: |||
V:2
 z2 z B [CA][CE][CA][Ec] | z2 A,2 z2 G,2 | z2 z B [B,EG]E[CEA][Gd] | A2 z2 z4 | %4
 z2 z B [CA][CE][CA][Ec] | z2[K:bass] [C,A,]2[K:treble] z2 A,2 | z2 z B [CEA][EB][CEA][EG] | %7
 [CE]2 [DF]2 [CE]2 z2 | B,2 B,c [Bd][GB][B,EG]E | A,2 G,2 [Ec]4 | [Gd]4 z4 | %11
[M:9/8] G2 A- A B2- B z z |[M:4/4] z2 z B [CA][CE][CA][Ec] | z2[K:bass] [C,A,]2[K:treble] z2 A,2 | %14
 z2 z B [CEA][EB][CEA][EG] | [CE]2 [DF]2 [CE]2 z2 |] %16
V:3
 z2 A,2 z4 | x8 | z2 B,2 z4 | x8 | z2 A,2 z4 | x2[K:bass] x2[K:treble] x4 | z2 D2 z4 | x8 | x8 | %9
 x8 | z2 E2 z4 |[M:9/8] x9 |[M:4/4] z2 A,2 z4 | x2[K:bass] x2[K:treble] x4 | z2 D2 z4 | x8 |] %16
V:4
 [A,,A,]2 z D [A,,A,]2 [A,,A,]2 | [E,A,]2 E,2 E2- [E,E]2 | [E,B,]2 z G z D z B, | %3
 [A,,A,]2 [A,,A,]2 [A,,A,]2 z2 | [A,,A,]2 z D [A,,A,]2 [A,,A,]2 | [C,A,]2 z2 [D,A,]2 D,2 | %6
 E3 E z D z B, | A,,2 A,,2 A,,2 z2 | E,2 z [A,A] G,B, z G, | %9
 C,2 z[K:treble] B[K:bass] [A,,A,]2 [A,,A,]2 | [E,B,]2 z[K:treble] G AA[K:bass] [F,B,]2 | %11
[M:9/8] [E,B,]2 [F,B,]- [F,B,] [G,B,]2- [G,B,] z z |[M:4/4] E4 z4 | [C,A,]2 z2 [D,A,]2 D,2 | %14
 E4 z4 | A,,2 A,,2 A,,2 z2 |] %16
V:5
 z2 A,,2 z4 | z4 [E,G,]2 z2 | z2 E,2 E,2 E,2 | x8 | z2 A,,2 z4 | x8 | [E,A,]2 E,2 E,2 E,2 | x8 | %8
 z2 E,2 E,2 E,2 | z2 B,,2[K:treble][K:bass] z4 | z2 E,2[K:treble] [A,E]2[K:bass] z2 |[M:9/8] x9 | %12
[M:4/4] A,2 z D [A,,A,]2 [A,,A,]2 | x8 | [E,A,]2 z E z D z B, | x8 |] %16
V:6
 x8 | x8 | x8 | x8 | x8 | x8 | x8 | x8 | x8 | x3[K:treble] x[K:bass] x4 | %10
 x3[K:treble] x3[K:bass] x2 |[M:9/8] x9 |[M:4/4] x8 | x8 | z2 E,2 E,2 E,2 | x8 |] %16

